Hatter-kde/actions/22/nextfuzzy.svg

<svg xmlns="http://www.w3.org/2000/svg" viewBox="0 0 22 22">
  <defs id="defs3051">
    <style type="text/css" id="current-color-scheme">
      .ColorScheme-Text {
        color:#363636;
      }
      </style>
  </defs>
 <path 
     style="fill:currentColor;fill-opacity:1;stroke:none" 
     d="M 4 3 L 4 17 L 3 17 L 3 18 L 4 18 L 4 19 L 5 19 L 5 18 L 12 18 L 12 17 L 5 17 L 5 3 L 4 3 z M 10.5 3 C 9.52778 3 8.6199987 3.3409388 7.9804688 3.9804688 C 7.3409388 4.6199988 7 5.52778 7 6.5 L 9 6.5 C 9 5.97222 9.1590713 5.6300012 9.3945312 5.3945312 C 9.6300013 5.1590613 9.97222 5 10.5 5 C 11.02778 5 11.369999 5.1590612 11.605469 5.3945312 C 11.840939 5.6300012 12 5.97222 12 6.5 C 12 6.95834 11.909603 7.1533219 11.789062 7.3261719 C 11.267792 7.8520819 10.637349 8.3017219 10.130859 8.7324219 C 9.5591894 9.1616519 9 9.72438 9 10.5 L 9 11 L 11 11 L 11 10.5 C 11.71082 9.77234 12.770258 9.1378431 13.429688 8.4707031 C 13.777848 7.9716731 14 7.29167 14 6.5 C 14 5.52778 13.659071 4.6199988 13.019531 3.9804688 C 12.380001 3.3409387 11.47222 3 10.5 3 z M 17 3 L 17 12 L 18 12 L 18 3 L 17 3 z M 15.707031 12 L 15 12.707031 L 17.292969 15 L 13 15 L 13 16 L 17.292969 16 L 15 18.292969 L 15.707031 19 L 19 15.707031 L 19.207031 15.5 L 19 15.292969 L 15.707031 12 z M 9 13 L 9 15 L 11 15 L 11 13 L 9 13 z "
     class="ColorScheme-Text"
     />
 </svg>

<?xml version="1.0" encoding="UTF-8"?>
<svg viewBox="0 0 22 22" xmlns="http://www.w3.org/2000/svg">
 <defs id="defs3051">
  <style id="current-color-scheme" type="text/css">.ColorScheme-Text {
        color:#363636;
      }</style>
 </defs>
 <path class="ColorScheme-Text" d="m4 3v14h-1v1h1v1h1v-1h7v-1h-7v-14h-1zm6.5 0c-0.97222 0-1.88 0.34094-2.5195 0.98047-0.63953 0.63953-0.98047 1.5473-0.98047 2.5195h2c0-0.52778 0.15907-0.87 0.39453-1.1055 0.23547-0.23547 0.57769-0.39453 1.1055-0.39453s0.87 0.15906 1.1055 0.39453 0.39453 0.57769 0.39453 1.1055c0 0.45834-0.090397 0.65332-0.21094 0.82617-0.52127 0.52591-1.1517 0.97555-1.6582 1.4062-0.57167 0.42923-1.1309 0.99196-1.1309 1.7676v0.5h2v-0.5c0.71082-0.72766 1.7703-1.3622 2.4297-2.0293 0.34816-0.49903 0.57031-1.179 0.57031-1.9707 0-0.97222-0.34093-1.88-0.98047-2.5195-0.63953-0.63953-1.5473-0.98047-2.5195-0.98047zm6.5 0v9h1v-9h-1zm-1.293 9-0.70703 0.70703 2.293 2.293h-4.293v1h4.293l-2.293 2.293 0.70703 0.70703 3.5-3.5-3.5-3.5zm-6.707 1v2h2v-2h-2z" fill="currentColor"/>
</svg>
